packages/crayons-icon/icons/similar-articles.svg

<?xml version="1.0" encoding="UTF-8"?>
<svg width="16px" height="16px" viewBox="0 0 16 16" version="1.1" xmlns="http://www.w3.org/2000/svg" xmlns:xlink="http://www.w3.org/1999/xlink">
    <!-- Generator: Sketch 52.6 (67491) - http://www.bohemiancoding.com/sketch -->
    <title>icon/similar-articles</title>
    <desc>Created with Sketch.</desc>
    <g id="Icons-✅" stroke="none" stroke-width="1" fill="none" fill-rule="evenodd">
        <g id="Icons" transform="translate(-326.000000, -1200.000000)" fill="currentColor">
            <g id="icon/similar-articles" transform="translate(326.000000, 1200.000000)">
                <g id="similar-articles">
                    <path d="M16,4.25 C16,4.27 16,4.3 16,4.3 L16,10.57 C16,11.9120519 14.9120519,13 13.57,13 L12.28,13 L12.28,13.57 C12.28,14.9120519 11.1920519,16 9.85,16 L2.43,16 C1.08794806,16 3.71706764e-15,14.9120519 3.55271368e-15,13.57 L3.55271368e-15,4.43 C3.71706764e-15,3.08794806 1.08794806,2 2.43,2 L3.77,2 C4.00664523,0.874511754 4.99990267,0.0690550914 6.15,0.07 L11.76,0.07 C11.8165276,0.0643854794 11.8734724,0.0643854794 11.93,0.07 L12,0.07 C12.0743525,0.104591369 12.1420485,0.151978557 12.2,0.21 L15.86,3.8 C15.922314,3.85820149 15.9702425,3.93009421 16,4.01 L16,4.08 C16.0103334,4.13619558 16.0103334,4.19380442 16,4.25 Z M13.61,3.6 L12.4,2.39 L12.4,3.6 L13.61,3.6 Z M10.88,13.6 L10.88,13 L6.15,13 C4.81957702,13.0001014 3.73642497,11.9303216 3.72,10.6 L3.72,3.43 L2.43,3.43 C1.87771525,3.43 1.43,3.87771525 1.43,4.43 L1.43,13.6 C1.43,14.1522847 1.87771525,14.6 2.43,14.6 L9.88,14.6 C10.4322847,14.6 10.88,14.1522847 10.88,13.6 Z M13.57,11.6 C13.8456628,11.6084017 14.1125573,11.5025845 14.3075709,11.3075709 C14.5025845,11.1125573 14.6084017,10.8456628 14.6,10.57 L14.6,5 L11.7,5 C11.3134007,5 11,4.68659932 11,4.3 L11,1.43 L6.15,1.43 C5.59771525,1.43 5.15,1.87771525 5.15,2.43 L5.15,10.6 C5.15,11.1522847 5.59771525,11.6 6.15,11.6 L13.57,11.6 Z M12.93,8.67 C13.3165993,8.67 13.63,8.98340068 13.63,9.37 C13.63,9.75659932 13.3165993,10.07 12.93,10.07 L6.8,10.07 C6.41340068,10.07 6.1,9.75659932 6.1,9.37 C6.1,8.98340068 6.41340068,8.67 6.8,8.67 L12.93,8.67 Z M6.8,6.92 C6.41340068,6.92 6.1,6.60659932 6.1,6.22 C6.1,5.83340068 6.41340068,5.52 6.8,5.52 L9.52,5.52 C9.90659932,5.52 10.22,5.83340068 10.22,6.22 C10.22,6.60659932 9.90659932,6.92 9.52,6.92 L6.8,6.92 Z" id="Combined-Shape"></path>
                </g>
            </g>
        </g>
    </g>
</svg>

<svg viewBox="0 0 16 16"><path d="M16 4.25v6.32A2.43 2.43 0 0 1 13.57 13h-1.29v.57A2.43 2.43 0 0 1 9.85 16H2.43A2.43 2.43 0 0 1 0 13.57V4.43A2.43 2.43 0 0 1 2.43 2h1.34A2.43 2.43 0 0 1 6.15.07h5.61a.86.86 0 0 1 .17 0H12a.7.7 0 0 1 .2.14l3.66 3.59a.55.55 0 0 1 .14.21v.07a.47.47 0 0 1 0 .17zm-2.39-.65L12.4 2.39V3.6h1.21zm-2.73 10V13H6.15a2.43 2.43 0 0 1-2.43-2.4V3.43H2.43a1 1 0 0 0-1 1v9.17a1 1 0 0 0 1 1h7.45a1 1 0 0 0 1-1zm2.69-2a1 1 0 0 0 1.03-1.03V5h-2.9a.7.7 0 0 1-.7-.7V1.43H6.15a1 1 0 0 0-1 1v8.17a1 1 0 0 0 1 1h7.42zm-.64-2.93a.7.7 0 0 1 0 1.4H6.8a.7.7 0 0 1 0-1.4h6.13zM6.8 6.92a.7.7 0 0 1 0-1.4h2.72a.7.7 0 0 1 0 1.4H6.8z" fill="currentColor" fill-rule="evenodd"/></svg>
